X: 3
T:Abbeyfield
% Nottingham Music Database
S:Peeping Tom, via EF
M:4/4
L:1/4
K:G
d|"G"gd "D/f+"Bd/2B/2|"Em"E/2F/2G/2A/2 B-"d"B|"C"cA AG|\
"D7"A/2D/2B/2D/2 "e"c/2D/2"f#"d/2D/2|
"G"gd dB/2d/2|"C"c/2A/2B/2G/2 "D"A"d#"D|"Em"E/2F/2G/2A/2 Bc|\
"D"A/2D/2c/2A/2 "G"G:||:
F/2G/2|"D"AD "e"D"f#"c|"G"BG "b"G3/2F/2|"A7/c+"E/2F/2G/2A/2 B/2A/2B/2^c/2|\
"D"d"c"d "b"d"a"e/2f/2|
"G"gd dB/2d/2|"C"c/2A/2B/2G/2 "D"A"d#"D|"Em"E/2F/2G/2A/2 Bc|\
"D"A/2D/2c/2A/2 "G"G:|


